X: 1
T: Bingsj\"opolska efter Nylandspojkarna
O:
R: Bingsj\"opolska, 16th-note polska
Z: John Chambers <jc@trillian.mit.edu>
M: 3/4
L: 1/16
K: A
|: (a2 \
| "D"ga)ba f2af d2f2 | "A"e2ae c2ec A2c2 \
| "E7"(Bc)dB G2BG E2FG |1,3 (AG)"A"AB (cB)cd e2 :|2,4 A4 "A"A6 :|
|: E2 \
| "A"C2E-C "E7"B,2E-B, "A"A,4 | A2Bc "D"d2f-d "A"c4 \
| "E7"B3c- "D"d2f-d "A"c2e-c |1,3 (EG)"E7"BG "A"A2AE C2 :|2,4 (EG)"E7"BG "A"A6 :|

%%sep 1 1 500

